storage/app/icons/phosphoricons/bold/address-book-bold.svg

<svg xmlns="http://www.w3.org/2000/svg" fill="currentColor" viewBox="0 0 256 256"><path d="M208 20H64a20 20 0 0 0-20 20v20H32a12 12 0 0 0 0 24h12v32H32a12 12 0 0 0 0 24h12v32H32a12 12 0 0 0 0 24h12v20a20 20 0 0 0 20 20h144a20 20 0 0 0 20-20V40a20 20 0 0 0-20-20m-4 192H68V44h136Zm-103.2-40.63a48 48 0 0 1 70.4 0 12 12 0 0 0 17.6-16.32 72 72 0 0 0-19.21-14.68 44 44 0 1 0-67.19 0 72.1 72.1 0 0 0-19.2 14.68 12 12 0 0 0 17.6 16.32M116 112a20 20 0 1 1 20 20 20 20 0 0 1-20-20"/></svg>

<svg xmlns="http://www.w3.org/2000/svg" viewBox="0 0 256 256" fill="currentColor"><path d="M208,20H64A20,20,0,0,0,44,40V60H32a12,12,0,0,0,0,24H44v32H32a12,12,0,0,0,0,24H44v32H32a12,12,0,0,0,0,24H44v20a20,20,0,0,0,20,20H208a20,20,0,0,0,20-20V40A20,20,0,0,0,208,20Zm-4,192H68V44H204ZM100.8,171.37a48,48,0,0,1,70.4,0,12,12,0,0,0,17.6-16.32,72,72,0,0,0-19.21-14.68,44,44,0,1,0-67.19,0,72.12,72.12,0,0,0-19.2,14.68,12,12,0,0,0,17.6,16.32ZM116,112a20,20,0,1,1,20,20A20,20,0,0,1,116,112Z"/></svg>
